X:139
T:Lord Bateman - Bennett
%%VWML:SBG-1-2-838-0
F:http://www.vwml.org/record/SBG/1/2/838
Z:Original Sibelius transcriptions by M. & S. Graebe
M:3/4
I:linebreak $
K:C
V:1 treble nm="P1"
V:1
 c2 | FF c2 _ed | cA F2 c2 | cc f2 =ed | cd c3 c |$ fd B2 AB | cd _ed c>c | FF c2 cd | _ed cB cA | %9
 F4 x2 | %10

